!!!!SEGMENT: pl-gd--ee-1638--005-001_marenzio-luca--il-primo-libro-de-madrigali-spirituali-a-cinque-voci-gratia-renda-al-signor.krn
!!!cenid: 15xx:954
!!!COM: Marenzio, Luca
!!!COM-rismID:
!!!CDT: ~1553-1599/08/22
!!!CNT: Italian
!!!GTL: Il Primo libro de madrigali spirituali a cinque voci
!!!OTL: Gratia renda al Signor
!!!OMV: 001
!!!PDT: 1588
!!!AGN:
!!!SMS-siglum: PL-GD
!!!SMS-shelfmark: Ee 1638
!!!SMS-variant:
!!!SMS-altvar:
!!!SMS-shelfwork: 005-001 G
!!!NIFC-rismSourceID: 990039269
!!!NIFC-islandoraID: pl-gd:57883
!!!URL-pdf-islandora: https://repozytorium.nifc.pl/islandora/object/pl-gd%3A57883/datastream/PDF/view
!!!URL-scan: https://polish.musicsources.pl/pl/lokalizacje/galeria/klocki-introligatorskie/655 @EN{Scan on Polish Music Herritage in Open Access Website} @PL{Skany w portalu Dziedzictwo Muzyki Polskiej w otwartym dostępie}
!!!ONB-nifc: UWAGA: zbiór na stronach: Canto: s. 666-677, Alto: s. 514-525, Tenore: s. 362-373, Bassus: s. 210-221, Quinto: s. 58-69. Uwaga: utwory podzielone wg tytułów w spisach treści dostępnych na końcu każdej księgi głosowej.
!!!AIN: 2 alto 1 bass 1 soprn 1 tenor
!!!key: G
**kern	**text	**kern	**text	**kern	**text	**kern	**text	**kern	**text
*part5	*part5	*part4	*part4	*part3	*part3	*part2	*part2	*part1	*part1
*staff5	*staff5	*staff4	*staff4	*staff3	*staff3	*staff2	*staff2	*staff1	*staff1
*I"Quinto	*	*I"Basso	*	*I"Tenore	*	*I"Alto	*	*I"Canto	*
*I'V 5	*	*I'B	*	*I'T	*	*I'A	*	*I'S	*
*Ialto	*	*Ibass	*	*Itenor	*	*Ialto	*	*Isoprn	*
*ICvox	*	*ICvox	*	*ICvox	*	*ICvox	*	*ICvox	*
*clefC3	*	*clefF4	*	*clefC4	*	*clefC3	*	*clefC1	*
*k[]	*	*k[]	*	*k[]	*	*k[]	*	*k[]	*
*G:	*	*G:	*	*G:	*	*G:	*	*G:	*
*M2/1	*	*M2/1	*	*M2/1	*	*M2/1	*	*M2/1	*
*met(C|)	*	*met(C|)	*	*met(C|)	*	*met(C|)	*	*met(C|)	*
=1-	=1-	=1-	=1-	=1-	=1-	=1-	=1-	=1-	=1-
!	!	!	!	!LO:TX:b:t=Gratie	!	!	!	!LO:TX:a:B:t=Prestissimo	!
0r	.	00r	.	1r	.	1r	.	1g	GRa-
.	.	.	.	2r	.	2r	.	1g	-tie
.	.	.	.	2G/	Ren-	2g\	Ren-	.	.
=2-	=2-	=2-	=2-	=2-	=2-	=2-	=2-	=2-	=2-
1g	GRa-	.	.	2B\	-da al	2d\	-da al	1r	.
.	.	.	.	2c\	ſi-	2e\	ſi-	.	.
2g\	-tie	.	.	2G/	-gnor	1d	-gnor	2r	.
2G/	re(n)-	.	.	2d\	ren-	.	.	2g/	ren-
=3-	=3-	=3-	=3-	=3-	=3-	=3-	=3-	=3-	=3-
2B/	-da al	1G	GRa-	2d\	-da al	1g	Gra-	2d/	-da al
2c/	ſi-	.	.	2c\	ſi-	.	.	2e/	ſi-
1d	-gnor	2G\	-tie	1B	-gnor	2g\	-tie	2d/	-gnor
*	*	*	*	*	*	*	*	*	*ij
.	.	2GG/	re(n)-	.	.	2g\	ren-	2dd\	ren-
=4-	=4-	=4-	=4-	=4-	=4-	=4-	=4-	=4-	=4-
1g	Gra-	2BB/	-da al	1G	Gra-	2d\	-da al	2dd\	-da al
.	.	2C/	ſi-	.	.	2e\	ſi-	2cc\	si-
2g\	-tie	2GG/	-gnor	2G/	-tie	1d	-gnor	1b	-gno
*	*	*	*	*	*	*	*	*	*Xij
2d\	ren-	2G\	ren-	2B\	ren-	.	.	.	.
=5-	=5-	=5-	=5-	=5-	=5-	=5-	=5-	=5-	=5-
2f#X\	-da al	2D/	-da al	2A/	-da al	2d\	me-	2r	.
2g\	ſi-	2E\	ſi-	2G/	ſi-	1c	-co	2e/	ren-
2a\	-gnor	0D	-gnor	1d	-gnor	.	.	2f#X/	-da al
!	!	!	!	!	!	!LO:SIC:v:t=custos B	!	!	!
!	!	!	!	!	!	!LO:LB:g=original	!	!	!
1g\	me-	.	.	.	.	2B/	la	2g/	ſi-
!	!	!	!	!LO:SIC:v:t=custos d	!	!	!	!	!
!	!	!	!	!LO:LB:g=original	!	!	!	!	!
=6-	=6-	=6-	=6-	=6-	=6-	=6-	=6-	=6-	=6-
.	.	.	.	2r	.	1A	ter-	1a	-gnor
1fny	-co	.	.	1d	me-	.	.	.	.
.	.	2BB/	me-	.	.	0G	-ra	2d/	me-
1e\	la	1C/	-co	1c\	-co	.	.	2g/	-co
!LO:SIC:v:t=custos d	!	!	!	!	!	!	!	!LO:SIC:v:t=custos e	!
!LO:LB:g=original	!	!	!	!	!	!	!	!LO:LB:g=original	!
=7-	=7-	=7-	=7-	=7-	=7-	=7-	=7-	=7-	=7-
.	.	.	.	.	.	.	.	2e/	la
2.d\	ter-	2GG/	la	2B\	la	.	.	2.g/	ter-
.	.	1D	ter-	1A	ter-	2r	.	.	.
8c/	.	.	.	.	.	.	.	8f#X/	.
8B/	.	.	.	.	.	.	.	8e/	.
2A/	.	.	.	.	.	2.d\	Poi	2f#X/	.
!	!	!LO:SIC:v:t=custos GG	!	!	!	!	!	!	!
!	!	!LO:LB:g=original	!	!	!	!	!	!	!
=8-	=8-	=8-	=8-	=8-	=8-	=8-	=8-	=8-	=8-
1B	-ra	2GG/	-ra	2G/	-ra	.	.	1g	-ra
.	.	.	.	.	.	4d\	ch'è	.	.
.	.	2.G\	Poi	2.B\	Poi	2d\	ſgom-	.	.
2r	.	.	.	.	.	2e\	-bro	2r	.
.	.	4G\	ch'e	4B\	ch'è	.	.	.	.
2.d\	Poi	2G\	sgom-	2B\	ſgom-	2d\	da	2.dd\	Poi
=9-	=9-	=9-	=9-	=9-	=9-	=9-	=9-	=9-	=9-
.	.	2F\	-bro	2A/	-bro	2a\	me	.	.
4d\	ch'e	.	.	.	.	.	.	4dd\	ch'è
2d\	ſgom-	2G\	da	2B\	da	2g\	l'in-	2dd\	ſgom-
2c/	-bro	2C/	me	1.G	me	2.g\	-ter-	2ee\	-bro
2d\	da	2BB/	l'in-	.	.	.	.	2dd\	da
.	.	.	.	.	.	4f\	.	.	.
=10-	=10-	=10-	=10-	=10-	=10-	=10-	=10-	=10-	=10-
1G	me	2.C/	-ter-	.	.	4e\	.	2cc\	me
.	.	.	.	.	.	4d\	.	.	.
.	.	.	.	2E/	l'in-	1c	.	2g/	l'in-
.	.	4BB/	.	.	.	.	.	.	.
2r	.	2AA/	.	1.E	-ter-	.	.	2a\	-ter-
2e\	l'in-	2GG#X/	-no	.	.	2B/	-no	2b\	-no
=11-	=11-	=11-	=11-	=11-	=11-	=11-	=11-	=11-	=11-
2e\	-ter-	0AA	ghiac-	.	.	0A	ghiac-	2cc#X\	ghiac-
2d\	-no	.	.	2F/	-no	.	.	2.dd\	.
1e	ghiac-	.	.	1E	ghiac-	.	.	.	.
.	.	.	.	.	.	.	.	8cc#X\	.
.	.	.	.	.	.	.	.	8b\	.
.	.	.	.	.	.	.	.	2cc#X\	.
!	!	!	!	!	!	!	!	!LO:SIC:v:t=custos dd	!
!	!	!	!	!	!	!	!	!LO:LB:g=original	!
=12-	=12-	=12-	=12-	=12-	=12-	=12-	=12-	=12-	=12-
2f#X\	-cio	1D	-cio	1D	-cio	1A	-cio	2dd\	-cio
4r	.	.	.	.	.	.	.	4r	.
4f#X\	Gio-	.	.	.	.	.	.	4a\	Gioi
4g\	-i	1r	.	1r	.	2r	.	4b\	ſca
4e\	ſca il	.	.	.	.	.	.	4g/	il
!LO:SIC:v:t=custos f	!	!	!	!	!	!	!	!	!
!LO:LB:g=original	!	!	!	!	!	!	!	!	!
4f#\	mio	.	.	.	.	2d\	gio-	4a\	mio
4d\	de-	.	.	.	.	.	.	4b\	de-
=13-	=13-	=13-	=13-	=13-	=13-	=13-	=13-	=13-	=13-
2c/	-ſio	0r	.	0r	.	4e\	-i	4ccny\	-ſir
!	!	!	!	!	!	!LO:SIC:v:t=custos c	!	!	!
!	!	!	!	!	!	!LO:LB:g=original	!	!	!
.	.	.	.	.	.	8c\	ſca-	4ee\	gio-
.	.	.	.	.	.	8d\	.	.	.
2c/	gio-	.	.	.	.	8e\	.	8ee\	-i-
.	.	.	.	.	.	8f\	.	8dd\	.
.	.	.	.	.	.	8g\	.	8cc\	.
.	.	.	.	.	.	8e\	.	8b\	.
4d\	-i-	.	.	.	.	4f#X\	.	4a\	.
4e\	-ſca	.	.	.	.	2g\	-l'al-	4g/	-ſca
2d\	l'al-	.	.	.	.	.	.	2a\	l'al-
.	.	.	.	.	.	4f#X\	.	.	.
=14-	=14-	=14-	=14-	=14-	=14-	=14-	=14-	=14-	=14-
2G/	-ma	2r	.	2r	.	1g	-ma	1b	-ma
2d\	E	2G\	E	2B\	E	.	.	.	.
2e\	ſe-	2E\	ſe-	2c\	ſe-	2r	.	2r	.
2d\	-co a-	2G\	-co a-	2B\	-co a	2g\	E	2dd\	E
!	!	!	!	!LO:SIC:v:t=custos g	!	!	!	!	!
!	!	!	!	!LO:LB:g=original	!	!	!	!	!
=15-	=15-	=15-	=15-	=15-	=15-	=15-	=15-	=15-	=15-
2c/	-bon-	2C/	-hor	1g	bon-	2e\	ſe-	2ee\	ſe-
!	!	!LO:SIC:v:t=custos G	!	!	!	!	!	!	!
!	!	!LO:LB:g=original	!	!	!	!	!	!	!
2B/	-di	2G\	di	.	.	2g\	-co	2dd\	-co a-
4c/	di	4A\	di	1e	-di	1c	a-	1cc	-bon-
4d\	le-	4B\	le-	.	.	.	.	.	.
4e\	-ti-	4c\	-ti-	.	.	.	.	.	.
4c/	-tia il	4A\	-tia il	.	.	.	.	.	.
=16-	=16-	=16-	=16-	=16-	=16-	=16-	=16-	=16-	=16-
2d\	co-	2G\	co-	4B\	di	1g	-bon-	1b	-di
.	.	.	.	4c\	le-	.	.	.	.
4d\	-re	4G\	-re	4d\	-ti-	.	.	.	.
4g\	E	4G\	E	4B\	-tia il	.	.	.	.
1e	ſe-	1A	ſe-	2c\	co-	4c/	-di	4a\	di
.	.	.	.	.	.	4d\	le-	4b\	le-
.	.	.	.	2A/	-re	4e\	-ti-	4cc\	-ti-
.	.	.	.	.	.	4c/	-tia il	4a\	-tia il
!LO:SIC:v:t=custos g	!	!	!	!	!	!	!	!LO:SIC:v:t=custos dd	!
!LO:LB:g=original	!	!	!	!	!	!	!	!LO:LB:g=original	!
=17-	=17-	=17-	=17-	=17-	=17-	=17-	=17-	=17-	=17-
1g	-co a-	1G	-co a-	4B\	di	2d\	co-	2dd\	co-
.	.	.	.	4c\	le-	.	.	.	.
.	.	.	.	4d\	-ti-	2d\	-re	2g/	-re
.	.	.	.	4B\	-tia il	.	.	.	.
!	!	!	!	!	!	!LO:SIC:v:t=custos f	!	!	!
!	!	!	!	!	!	!LO:LB:g=original	!	!	!
1c	-bon-	1F	-hon-	2c\	co-	4fny\	di	4a\	di
.	.	.	.	.	.	4g\	le-	4b\	le-
.	.	.	.	2A/	-re	4a\	-ti-	4cc\	-ti-
.	.	.	.	.	.	4A/	-tia il	4dd\	-tia il
=18-	=18-	=18-	=18-	=18-	=18-	=18-	=18-	=18-	=18-
1g	-di	1E	-di	4G/	di	2B/	co-	2ee\	co-
.	.	.	.	4A/	le-	.	.	.	.
.	.	.	.	4B\	-ti-	4B/	-re	2b\	-re
.	.	.	.	4G/	-tia il	4g\	E	.	.
4c/	di	4A\	di	2c\	co-	1e	ſe-	2r	.
4d\	le-	4B\	le-	.	.	.	.	.	.
4e\	-ti-	4c\	-ti-	2c\	-re	.	.	4g/	di
4c/	-tia il	4A\	-tia il	.	.	.	.	4a\	le-
!	!	!	!	!LO:SIC:v:t=custos G	!	!	!	!	!
!	!	!	!	!LO:LB:g=original	!	!	!	!	!
=19-	=19-	=19-	=19-	=19-	=19-	=19-	=19-	=19-	=19-
2d\	co-	2G\	co-	4G/	di	1g	-co o-	4b\	-ti-
.	.	.	.	4A/	le-	.	.	4cc\	-tia il
2d\	-re	2G\	-re	4B\	-ti-	.	.	2dd\	co-
.	.	.	.	4B\	-tia il	.	.	.	.
2r	.	4A\	di	2e\	co-	1c	-bon-	2cc\	-re
.	.	4B\	le-	.	.	.	.	.	.
*	*	*	*	*	*	*	*	*	*ij
4e\	di	4c\	-ti-	2c\	-re	.	.	4g/	di
4c/	le-	4A\	-tia il	.	.	.	.	4a\	le-
!	!	!LO:SIC:v:t=custos G	!	!	!	!	!	!	!
!	!	!LO:LB:g=original	!	!	!	!	!	!	!
=20-	=20-	=20-	=20-	=20-	=20-	=20-	=20-	=20-	=20-
4d\	-ti-	2G\	co-	2r	.	1g	-di	4b\	-ti-
4c/	-tia il	.	.	.	.	.	.	4a\	-tia il
2B/	co-	2G\	-re	2.d\	di	.	.	2g/	co-
1A	-re	4D/	di	.	.	4f\	di	1a	-re
*	*	*	*	*	*	*	*	*	*Xij
.	.	4E\	le-	4c\	le-	4e\	le-	.	.
.	.	4F\	-ti-	4A/	-ti-	4c/	-ti-	.	.
.	.	4D/	-tia il	4B\	-tia il	4d\	-tia il	.	.
=21-	=21-	=21-	=21-	=21-	=21-	=21-	=21-	=21-	=21-
2r	.	1C	co-	1c	co-	1e	co-	2r	.
1e	Pio-	.	.	.	.	.	.	1fny	Pio-
.	.	0.C	-re	1G	-re	1c	-re	.	.
4c/	-uan	.	.	.	.	.	.	4e/	-uan
4d\	in	.	.	.	.	.	.	4f/	in
!	!	!	!	!	!	!	!	!LO:SIC:v:t=custos g	!
!	!	!	!	!	!	!	!	!LO:LB:g=original	!
=22-	=22-	=22-	=22-	=22-	=22-	=22-	=22-	=22-	=22-
4.e\	co-	.	.	2r	.	2r	.	4.g/	co-
8e\	-pia i	.	.	.	.	.	.	8g/	-pia i
!LO:SIC:v:t=custos e	!	!	!	!	!	!	!	!	!
!LO:LB:g=original	!	!	!	!	!	!	!	!	!
4e\	mag-	.	.	1e	Pio-	1g	Pio-	4g/	mag-
4d\	-gior	.	.	.	.	.	.	4f/	-gior
4c/	ben	.	.	.	.	.	.	1e	ben
4c/	del	.	.	.	.	.	.	.	.
2g\	cie-	.	.	4c\	-uan	4e\	-uan	.	.
.	.	.	.	4d\	in	4f\	in	.	.
=23-	=23-	=23-	=23-	=23-	=23-	=23-	=23-	=23-	=23-
1c	-lo	2r	.	4.e\	co-	4.g\	co-	2r	.
.	.	.	.	8e\	-pia i	8g\	-pia i	.	.
!	!	!	!	!	!	!LO:SIC:v:t=custos g	!	!	!
!	!	!	!	!	!	!LO:LB:g=original	!	!	!
.	.	1c	Pio-	4e\	mag-	4g\	mag-	1ee	Pi-
.	.	.	.	4d\	-gior	4f\	-gior	.	.
!	!	!	!	!LO:SIC:v:t=custos c	!	!	!	!	!
!	!	!	!	!LO:LB:g=original	!	!	!	!	!
2r	.	.	.	2c\	ben	2e\	ben	.	.
*	*ij	*	*	*	*	*	*	*	*
1e\	Pio-	4A\	-uan	1c\	Pio-	2a\	del	4cc\	-uan
.	.	4B\	in	.	.	.	.	4dd\	in
=24-	=24-	=24-	=24-	=24-	=24-	=24-	=24-	=24-	=24-
.	.	4.c\	co-	.	.	2g\	cie-	4.ee\	co-
.	.	8c\	-pia i	.	.	.	.	8ee\	-pia i
4c/	-uan	4c\	ma-	4A/	-uan	2a\	-lo	4ee\	mag-
4d\	in	4B\	-gior	4B\	in	.	.	4dd\	-gior
4.e\	co-	1.A	be(n)-	4.c\	co-	4r	.	1.cc	ben
.	.	.	.	.	.	4e\	del	.	.
8e\	-pia i	.	.	8c\	-pia i	.	.	.	.
4e\	mag-	.	.	4c\	mag-	2a\	cie-	.	.
4d\	-gior	.	.	4d\	-gior	.	.	.	.
=25-	=25-	=25-	=25-	=25-	=25-	=25-	=25-	=25-	=25-
2c/	ben	.	.	4e\	ben	1a	-lo	.	.
.	.	.	.	2c\	del	.	.	.	.
2fny\	del	2F\	-del	.	.	.	.	2cc\	del
.	.	.	.	2f\	cie-	.	.	.	.
1g	cie-	1c	cie-	.	.	1r	.	1cc	cie-
.	.	.	.	8e\	.	.	.	.	.
.	.	.	.	8d\	.	.	.	.	.
.	.	.	.	2e\	.	.	.	.	.
=26-	=26-	=26-	=26-	=26-	=26-	=26-	=26-	=26-	=26-
1a	-lo	1F	-lo	1c	-lo	4r	.	4cc\	-lo
*	*Xij	*	*	*	*	*	*	*	*
.	.	.	.	.	.	4a\	Che	4cc\	Che
.	.	.	.	.	.	4f\	non	4a\	non
.	.	.	.	.	.	4e\	più	4a\	più
!	!	!	!	!	!	!	!	!LO:SIC:v:t=custos g	!
!	!	!	!	!	!	!	!	!LO:LB:g=original	!
4r	.	2G\	Che	4r	.	2d\	van	2g/	van
4d\	Che	.	.	4B\	Che	.	.	.	.
!	!	!LO:SIC:v:t=custos E	!	!	!	!	!	!	!
!	!	!LO:LB:g=original	!	!	!	!	!	!	!
4e\	non	4E\	non	4c\	non	2r	.	2r	.
4f#X\	più	4D/	più	4d\	più	.	.	.	.
!LO:SIC:v:t=custos g	!	!	!	!	!	!	!	!	!
!LO:LB:g=original	!	!	!	!	!	!	!	!	!
=27-	=27-	=27-	=27-	=27-	=27-	=27-	=27-	=27-	=27-
2g\	van	2C/	van	2e\	van	4r	.	4r	.
*	*	*	*	*	*	*	*ij	*	*
.	.	.	.	.	.	4G/	Che	4g/	Che
2r	.	2r	.	2r	.	4A/	non	4e/	non
.	.	.	.	.	.	4B/	più	4d/	più
!	!	!	!	!LO:SIC:v:t=custos E	!	!	!	!	!
!	!	!	!	!LO:LB:g=original	!	!	!	!	!
4r	.	4r	.	4r	.	2c/	van	2c/	van
*	*ij	*	*	*	*ij	*	*Xij	*	*
4G/	Che	4C/	Che	4E/	Che	.	.	.	.
4A/	non	4AA/	non	4F/	non	2r	.	2r	.
4B/	più	4GGny/	più	4G/	pi	.	.	.	.
=28-	=28-	=28-	=28-	=28-	=28-	=28-	=28-	=28-	=28-
0c	van	0FF	van	0A	van	4r	.	4r	.
*	*Xij	*	*	*	*Xij	*	*	*	*ij
.	.	.	.	.	.	4c/	Che	4f/	che
!	!	!	!	!	!	!LO:SIC:v:t=custos A	!	!	!
!	!	!	!	!	!	!LO:LB:g=original	!	!	!
.	.	.	.	.	.	4A/	non	4a\	non
.	.	.	.	.	.	4G/	più	4b\	più
.	.	.	.	.	.	2F/	van	1cc	van
*	*	*	*	*	*	*	*	*	*Xij
.	.	.	.	.	.	1f\	ma-	.	.
=29-	=29-	=29-	=29-	=29-	=29-	=29-	=29-	=29-	=29-
1.c	ma	1.C	ma	1G	ma	.	.	2r	.
.	.	.	.	.	.	4e\	.	1g	ma
.	.	.	.	.	.	4d\	.	.	.
.	.	.	.	2E/	diu-	2e\	di-	.	.
2c/	di-	2AA/	diu-	1A\	-i	2e\	-ui-	2a\	di-
=30-	=30-	=30-	=30-	=30-	=30-	=30-	=30-	=30-	=30-
0B	-ui-	0E	-tno	.	.	0e	-no	1.b	-ui-
.	.	.	.	4G#X/	.	.	.	.	.
.	.	.	.	4F#X/	.	.	.	.	.
.	.	.	.	1G#X	no	.	.	.	.
.	.	.	.	.	.	.	.	2e/	-no
=31-	=31-	=31-	=31-	=31-	=31-	=31-	=31-	=31-	=31-
0d	-no	1.D	è'l	1.A	è'l	1.f#X	è'l	2r	.
.	.	.	.	.	.	.	.	1a	è'l
.	.	2BB/	mio	2B\	mio	2g\	mio	2dd\	mio
=32-	=32-	=32-	=32-	=32-	=32-	=32-	=32-	=32-	=32-
*	*	*lig	*	*	*	*	*	*	*
2r	.	1C	fo-	1Gny	fo-	4e\	fo-	4cc\	fe-
.	.	.	.	.	.	4fny\	.	4dd\	.
1e	è'l	.	.	.	.	4g\	.	4ee\	.
.	.	.	.	.	.	4f\	.	4dd\	.
.	.	1D	.	2G/	-co	4e\	.	4cc\	.
.	.	.	.	.	.	4d\	.	4b\	.
!	!	!	!	!	!	!	!	!LO:SIC:v:t=custos a	!
!	!	!	!	!	!	!	!	!LO:LB:g=original	!
2e\	mio	.	.	1c\	è'l	4c/	.	4a\	.
.	.	.	.	.	.	4B/	.	4g/	.
*	*	*Xlig	*	*	*	*	*	*	*
=33-	=33-	=33-	=33-	=33-	=33-	=33-	=33-	=33-	=33-
0d	fo-	1GG	-co	.	.	4A/	.	2f#X/	.
.	.	.	.	.	.	8B/	.	.	.
.	.	.	.	.	.	8c/	.	.	.
.	.	.	.	2B\	mio	2.d\	.	2.g/	.
.	.	4r	.	1A	fo-	.	.	.	.
.	.	4G\	Che	.	.	8c/	.	8f#X/	.
.	.	.	.	.	.	8B/	.	8e/	.
!	!	!	!	!	!	!LO:SIC:v:t=custos A	!	!	!
!	!	!	!	!	!	!LO:LB:g=original	!	!	!
.	.	4E\	non	.	.	2A/	.	2f#X/	.
.	.	4D/	più	.	.	.	.	.	.
!	!	!LO:SIC:v:t=custos C	!	!	!	!	!	!	!
!	!	!LO:LB:g=original	!	!	!	!	!	!	!
=34-	=34-	=34-	=34-	=34-	=34-	=34-	=34-	=34-	=34-
1d	-co	2C/	van	1G	-co	4B/	-co	4g/	-co
.	.	.	.	.	.	4d\	Che	4g/	Che
.	.	2r	.	.	.	4B/	non	4b\	non
.	.	.	.	.	.	4A/	più	4cc\	più
4r	.	4r	.	4r	.	2G/	van	2dd\	va(n)
4d\	Che	4C/	Che	4B\	Che	.	.	.	.
!	!	!	!	!LO:SIC:v:t=custos c	!	!	!	!	!
!	!	!	!	!LO:LB:g=original	!	!	!	!	!
4e\	non	4AA/	non	4c\	non	2r	.	2r	.
4f#X\	più	4GG/	Più	4d\	più	.	.	.	.
=35-	=35-	=35-	=35-	=35-	=35-	=35-	=35-	=35-	=35-
2g\	van	0FF	van	2e\	van	4r	.	4r	.
.	.	.	.	.	.	4G/	Che	4g/	Che
2r	.	.	.	2r	.	4A/	non	4e/	non
.	.	.	.	.	.	4B/	più	4d/	più
!LO:SIC:v:t=custos G	!	!	!	!	!	!	!	!	!
!LO:LB:g=original	!	!	!	!	!	!	!	!	!
4r	.	.	.	4r	.	2c/	van	2c/	van
*	*ij	*	*	*	*ij	*	*	*	*
4G/	che	.	.	4E/	che	.	.	.	.
4A/	non	.	.	4Fny/	non	2r	.	2r	.
4B/	più	.	.	4G/	più	.	.	.	.
=36-	=36-	=36-	=36-	=36-	=36-	=36-	=36-	=36-	=36-
0c	van	1.C	ma	0A	van	4r	.	4r	.
*	*Xij	*	*	*	*Xij	*	*ij	*	*ij
.	.	.	.	.	.	4c/	che	4fny/	che
.	.	.	.	.	.	4A/	non	4a\	non
.	.	.	.	.	.	4G/	più	4b\	più
.	.	.	.	.	.	2F/	van	1cc	van
*	*	*	*	*	*	*	*Xij	*	*Xij
.	.	2AA/	diui-	.	.	1f\	ma	.	.
!	!	!	!	!	!	!	!	!LO:SIC:v:t=custos g	!
!	!	!	!	!	!	!	!	!LO:LB:g=original	!
=37-	=37-	=37-	=37-	=37-	=37-	=37-	=37-	=37-	=37-
1.c	ma	0E	-no	1G	ma	.	.	2r	.
.	.	.	.	.	.	4e\	.	1g	ma
.	.	.	.	.	.	4d\	.	.	.
.	.	.	.	2E/	diu-	2e\	.	.	.
2c/	di-	.	.	1A\	-i	2e\	di-	2a\	di-
!	!	!	!	!	!	!LO:SIC:v:t=custos e	!	!	!
!	!	!	!	!	!	!LO:LB:g=original	!	!	!
=38-	=38-	=38-	=38-	=38-	=38-	=38-	=38-	=38-	=38-
0B	-ui-	1.D	è'l	.	.	0e	-ui-	1.b	-ui-
.	.	.	.	4G#X/	.	.	.	.	.
.	.	.	.	4F#X/	.	.	.	.	.
.	.	.	.	1G#X	.	.	.	.	.
.	.	2BB/	mio	.	.	.	.	2e/	-no
=39-	=39-	=39-	=39-	=39-	=39-	=39-	=39-	=39-	=39-
*	*	*lig	*	*	*	*	*	*	*
0d	-no	1C	fo-	1.A	n'el	1.f#X	-no è'l	2r	.
.	.	.	.	.	.	.	.	1a	è'l
.	.	1D	.	.	.	.	.	.	.
.	.	.	.	2B\	mio	2g\	mio	2dd\	mio
*	*	*Xlig	*	*	*	*	*	*	*
=40-	=40-	=40-	=40-	=40-	=40-	=40-	=40-	=40-	=40-
2r	.	000/GG	-co.	1Gny	fo-	4e\	fo-	4cc\	fo-
.	.	.	.	.	.	4fny\	.	4dd\	.
1e	è'l	.	.	.	.	4g\	.	4ee\	.
.	.	.	.	.	.	4f\	.	4dd\	.
.	.	.	.	2G/	-co	4e\	.	4cc\	.
.	.	.	.	.	.	4d\	.	4b\	.
2e\	mio	.	.	1c\	è'l	4c/	.	4a\	.
.	.	.	.	.	.	4B/	.	4g/	.
=41-	=41-	=41-	=41-	=41-	=41-	=41-	=41-	=41-	=41-
0d	fo-	.	.	.	.	4A/	.	2f#X/	.
.	.	.	.	.	.	8B/	.	.	.
.	.	.	.	.	.	8c/	.	.	.
.	.	.	.	2B\	mio	2.d\	.	2.g/	.
!	!	!	!	!LO:SIC:v:t=custos A	!	!	!	!	!
!	!	!	!	!LO:LB:g=original	!	!	!	!	!
.	.	.	.	1A	fo-	.	.	.	.
.	.	.	.	.	.	8c/	.	8f#X/	.
.	.	.	.	.	.	8B/	.	8e/	.
.	.	.	.	.	.	2A/	.	2f#X/	.
=42-	=42-	=42-	=42-	=42-	=42-	=42-	=42-	=42-	=42-
00d	-co.	.	.	00G	-co.	00B	-co.	00g	-co.
=43-	=43-	=43-	=43-	=43-	=43-	=43-	=43-	=43-	=43-
.	.	.	.	.	.	.	.	.	.
=	=	=	=	=	=-	=	=	=	=
*-	*-	*-	*-	*-	*-	*-	*-	*-	*-
!!!system-decoration: s1,s2,s3,s4,s5
!!!ENC: Andrzej Gręziak
!!!END: 2022-06-28
!!!ENC: Urszula Świątek
!!!END: 2022-07-20
